src/assets/material-icon-theme/icons/buck.svg

<svg version="1.1" viewBox="0 0 24 24" xmlns="http://www.w3.org/2000/svg"><g transform="matrix(.081367 0 0 .081367 1.595 2.9394)" style="fill:#0277bd"><path d="m72.426 0h-18.561v52.508l22.635 22.635h-27.16l-29.65-29.65v-45.492h-19.691v53.866l40.286 40.288h54.319l19.465 19.463h-52.057l43.909 45.267-64.279 63.825h25.351l64.276-64.729-24.444-24.444h129.92v8.1479l-56.131 33.496-47.076 47.529h26.706l32.138-32.591 63.374-38.023v-38.477h-59.751l-20.37-20.37 23.086-23.086v-51.603h-19.24v43.004l-18.784 18.558-16.749-17.54v-44.023h-18.107v52.51l42.336 42.548h-25.831l-69.917-69.257v-44.36" style="fill:#0277bd"/><path d="m170.65 145.3h-25.348l12.222 13.126 13.126-13.126" style="fill:#0277bd"/></g></svg>

<svg viewBox="0 0 24 24" xmlns="http://www.w3.org/2000/svg"><g style="fill:#0277bd"><path d="M72.426 0H53.865v52.508L76.5 75.143H49.34l-29.65-29.65V.001H-.001v53.866l40.286 40.288h54.319l19.465 19.463H62.012l43.909 45.267-64.279 63.825h25.351l64.276-64.729-24.444-24.444h129.92v8.148l-56.131 33.496-47.076 47.529h26.706l32.138-32.591 63.374-38.023v-38.477h-59.751l-20.37-20.37 23.086-23.086V18.56h-19.24v43.004l-18.784 18.558-16.749-17.54V18.559h-18.107v52.51l42.336 42.548h-25.831L72.429 44.36V0" style="fill:#0277bd" transform="translate(1.595 2.94) scale(.08137)"/><path d="M170.65 145.3h-25.348l12.222 13.126L170.65 145.3" style="fill:#0277bd" transform="translate(1.595 2.94) scale(.08137)"/></g></svg>
